dist/styles/ag-theme-alpine/icons/first.svg

<!-- Generated by IcoMoon.io -->
<svg version="1.1" xmlns="http://www.w3.org/2000/svg" width="32" height="32" viewBox="0 0 32 32">
<title>first</title>
<path d="M24.273 22.12l-6.12-6.12 6.12-6.12-1.88-1.88-8 8 8 8 1.88-1.88zM7.727 8h2.667v16h-2.667v-16z"></path>
</svg>

<?xml version="1.0" encoding="UTF-8" standalone="no"?>
<!DOCTYPE svg PUBLIC "-//W3C//DTD SVG 1.1//EN" "http://www.w3.org/Graphics/SVG/1.1/DTD/svg11.dtd">
<svg width="100%" height="100%" viewBox="0 0 32 32" version="1.1" xmlns="http://www.w3.org/2000/svg" xmlns:xlink="http://www.w3.org/1999/xlink" xml:space="preserve" xmlns:serif="http://www.serif.com/" style="fill-rule:evenodd;clip-rule:evenodd;stroke-linejoin:round;stroke-miterlimit:2;">
    <path id="first" d="M24.273,22.12L18.153,16L24.273,9.88L22.393,8L14.393,16L22.393,24L24.273,22.12ZM7.727,8L10.394,8L10.394,24L7.727,24L7.727,8Z" style="fill-rule:nonzero;"/>
</svg>
